X:274
T:Sailors Rant. RH274
R:jig
S:Rev.R.Harrison’s MS,c1815,Cumbria
N:I took the liberty of supplying a missing bar. PJH.
O:England
A:Temple Sowerby,Cumbria
Z:vmp.Simon Wilson. Review PJH, 2008.
M:6/8
L:1/8
Q:3/8=120
K:G
g3 dBd|ege dBd|gfe dcB|ABG FED|\
g3 dBd|ege fga|gfe Ad^c|d3 D3:|!
|:d3 BdB|c3 afd|c3 AdA|B3 GBG|\
ABc def|gfe dBd|” bar by PJH”fed ecA|”?”G3 d3:|

